modules/hawcons-filled/icons/icon-26-thumb-finger-tap.svg

<?xml version="1.0" encoding="UTF-8" standalone="no"?>
<svg width="32px" height="32px" viewBox="0 0 32 32" version="1.1" xmlns="http://www.w3.org/2000/svg" xmlns:xlink="http://www.w3.org/1999/xlink" xmlns:sketch="http://www.bohemiancoding.com/sketch/ns">
    <!-- Generator: Sketch 3.0.3 (7891) - http://www.bohemiancoding.com/sketch -->
    <title>icon 26 thumb finger tap</title>
    <desc>Created with Sketch.</desc>
    <defs></defs>
    <g id="Page-1" stroke="none" stroke-width="1" fill="none" fill-rule="evenodd" sketch:type="MSPage">
        <g id="icon-26-thumb-finger-tap" sketch:type="MSArtboardGroup" fill="#929292">
            <path d="M11.9846835,14.3524764 C11.9948234,14.2363355 12,14.1187723 12,14 C12,11.7908609 10.2091391,10 8,10 C5.79086089,10 4,11.7908609 4,14 C4,16.1286251 5.66270077,17.8689055 7.76019133,17.99293 C7.4975615,17.5911848 7.25346096,17.2072598 7.03388235,16.8410409 C5.85102502,16.4389234 5,15.3188455 5,14 C5,12.3431457 6.34314567,11 8,11 C9.47249975,11 10.6972183,12.0608767 10.9515315,13.460006 C11.3003588,13.7354592 11.6466125,14.0369399 11.9846835,14.3524764 L11.9846835,14.3524764 L11.9846835,14.3524764 Z M17,8.94949144 C17.6185935,8.3182229 18,7.4536526 18,6.5 C18,4.56700328 16.4329967,3 14.5,3 C12.5670033,3 11,4.56700328 11,6.5 C11,7.4536526 11.3814065,8.3182229 12,8.94949144 L12,6.50098635 C12,5.12893087 13.1192881,4 14.5,4 C15.8903379,4 17,5.11972973 17,6.50098635 L17,8.94949144 L17,8.94949144 Z M20,11.4908981 C20,10.6674978 19.3342028,10 18.5,10 C17.6715729,10 17,10.6762201 17,11.4908981 L17,13.4325233 L17,16 L16,16 L16,13.5 L16,6.50863659 C16,5.67543961 15.3342028,5 14.5,5 C13.6715729,5 13,5.66642015 13,6.50863659 L13,16.7983451 C10.9416004,14.5979243 8.23162978,12.1791206 7.12103271,13.2957153 C6.03386293,14.3887562 8.83536199,17.4007216 12.7473755,23.9830936 C14.5099958,26.9488875 16.7402849,28.9995418 20.5,29 C24.6421358,29 28,25.6421358 28,21.5 L28,18.2468012 L28,13.5063976 C28,12.6744372 27.3342028,12 26.5,12 C25.6715729,12 25,12.6764628 25,13.5063976 L25,15.7497253 L25,16 L24,16 L24,13.6781559 L24,12.4912653 C24,11.6676622 23.3342028,11 22.5,11 C21.6715729,11 21,11.6625444 21,12.4912653 L21,13.5082011 L21,15 L20,15 L20,13.5082011 L20,11.4908981 L20,11.4908981 Z" id="thumb-finger-tap" sketch:type="MSShapeGroup"></path>
        </g>
    </g>
</svg>

<svg width="32" height="32" xmlns="http://www.w3.org/2000/svg"><path d="M11.985 14.352a4 4 0 1 0-4.224 3.64 35.36 35.36 0 0 1-.727-1.151 3.001 3.001 0 1 1 3.918-3.381c.348.275.695.577 1.033.892zM17 8.95a3.5 3.5 0 1 0-5 0V6.501A2.506 2.506 0 0 1 14.5 4C15.89 4 17 5.12 17 6.501v2.448zm3 2.542a1.501 1.501 0 0 0-3 0V16h-1V6.509a1.5 1.5 0 1 0-3 0v10.29c-2.058-2.201-4.768-4.62-5.879-3.503-1.087 1.093 1.714 4.105 5.626 10.687C14.51 26.95 16.74 29 20.5 29a7.5 7.5 0 0 0 7.5-7.5v-7.993a1.5 1.5 0 1 0-3 0V16h-1V12.491c0-.823-.666-1.491-1.5-1.491-.828 0-1.5.663-1.5 1.491V15h-1v-3.509z" fill="#929292" fill-rule="evenodd"/></svg>
